X: 78
T: Polonäs, sexdregasamlingen del 2 nr 78
S: efter Anders Larsson
B: Sexdregasamlingen del 2 nr 78
O: Sexdrega, Västergötland
R: Slängpolska
Z: 2008-05-31 av Nils L
M: 3/4
L: 1/16
K: Gm
g4 G4 A4 | B2AG A4 D4 | B2AG c2BA B2AG | d2g2 ^f8 ::
d2de f4 d4 | g2c2 d2cd B4 | d2de f4 d4 | g2c2 d2cd B4 |
b2d2 d2cB c4 | a2c2 c2BA B4 | g2A2 B2AG A2G^F | G4 G8 :|

